static/images/icons/github.svg

<svg height="42" viewBox="0 0 42 42" width="42" xmlns="http://www.w3.org/2000/svg" xmlns:xlink="http://www.w3.org/1999/xlink"><linearGradient id="a" gradientTransform="matrix(.42261826 .90630779 -.90630779 .42261826 0 0)"><stop offset="0" stop-color="#59decb"/><stop offset=".6" stop-color="#3b63e7"/><stop offset="1" stop-color="#de59cc"/></linearGradient><g fill="url(#a)" fill-rule="evenodd"><circle cx="21" cy="21" r="21"/><path d="m33 15.2491017c-.84617.3815524-1.755705.6394276-2.71009.7552727.97405-.5936039 1.722355-1.5335741 2.074715-2.6536829-.911835.5497675-1.92165.9488544-2.996555 1.1639453-.86066-.9322551-2.08702-1.5146368-3.44425-1.5146368-2.6059 0-4.718795 2.1475181-4.718795 4.7964082 0 .3759413.041745.7420633.122245 1.0931055-3.92173-.2000111-7.398755-2.1096434-9.72601-5.0116159-.40618.7083969-.63894 1.5324051-.63894 2.4114719 0 1.6641483.83306 3.13226 2.09921 3.9923894-.77349-.0248991-1.501095-.2406913-2.137275-.5999163-.00046.0199894-.00046.0399788-.00046.0603189 0 2.323916 1.62656 4.2625388 3.785225 4.7032412-.395945.1096495-.81282.1683319-1.24315.1683319-.30406 0-.599725-.0301595-.8878-.0861532.600415 1.9055409 2.34301 3.292409 4.40795 3.3309851-1.614945 1.2865704-3.649525 2.0534159-5.8604 2.0534159-.38088 0-.75647-.022795-1.12562-.067099 2.088285 1.360917 4.568605 2.1551164 7.233385 2.1551164 8.679395 0 13.42579-7.3088793 13.42579-13.647395 0-.2079601-.004715-.4147512-.0138-.6204903.92207-.6763671 1.72201-1.5210661 2.354625-2.483013" fill="#fff"/></g></svg>

<?xml version="1.0" encoding="UTF-8"?>
<svg width="42px" height="42px" viewBox="0 0 42 42" version="1.1" xmlns="http://www.w3.org/2000/svg" xmlns:xlink="http://www.w3.org/1999/xlink">
    <title>Group 14</title>
    <defs>
    <linearGradient id="holoGradient" gradientTransform="rotate(65)">
        <stop offset="0%" stop-color="#59DECB" /> 
        <stop offset="60%" stop-color="#3B63E7" />
        <stop offset="100%" stop-color="#DE59CC" />
    </linearGradient>

    </defs>
    <g id="Web" stroke="none" stroke-width="1" fill="none" fill-rule="evenodd">
        <g id="DT_EuroRust-'23_vs.2c" transform="translate(-1284.000000, -4432.000000)" fill="url(#holoGradient)">
            <g id="Group-2" transform="translate(165.000000, 4367.000000)">
                <g id="Group-14" transform="translate(1119.000000, 65.000000)">
                    <circle id="Oval" class="icon-oval" opacity="1" cx="21" cy="21" r="21"></circle>
                    <path class="icon-inner" d="M33,15.2491017 C32.15383,15.6306541 31.244295,15.8885293 30.28991,16.0043744 C31.26396,15.4107705 32.012265,14.4708003 32.364625,13.3506915 C31.45279,13.900459 30.442975,14.2995459 29.36807,14.5146368 C28.50741,13.5823817 27.28105,13 25.92382,13 C23.31792,13 21.205025,15.1475181 21.205025,17.7964082 C21.205025,18.1723495 21.24677,18.5384715 21.32727,18.8895137 C17.40554,18.6895026 13.928515,16.7798703 11.60126,13.8778978 C11.19508,14.5862947 10.96232,15.4103029 10.96232,16.2893697 C10.96232,17.953518 11.79538,19.4216297 13.06153,20.2817591 C12.28804,20.25686 11.560435,20.0410678 10.924255,19.6818428 C10.923795,19.7018322 10.923795,19.7218216 10.923795,19.7421617 C10.923795,22.0660777 12.550355,24.0047005 14.70902,24.4454029 C14.313075,24.5550524 13.8962,24.6137348 13.46587,24.6137348 C13.16181,24.6137348 12.866145,24.5835753 12.57807,24.5275816 C13.178485,26.4331225 14.92108,27.8199906 16.98602,27.8585667 C15.371075,29.1451371 13.336495,29.9119826 11.12562,29.9119826 C10.74474,29.9119826 10.36915,29.8891876 10,29.8448836 C12.088285,31.2058006 14.568605,32 17.233385,32 C25.91278,32 30.659175,24.6911207 30.659175,18.352605 C30.659175,18.1446449 30.65446,17.9378538 30.645375,17.7321147 C31.567445,17.0557476 32.367385,16.2110486 33,15.2491017" fill="#fff"></path>
                </g>
            </g>
        </g>
    </g>
</svg>
